build/img/icons/house2.svg

<svg width="120" height="120" viewBox="0 0 120 120" fill="none" xmlns="http://www.w3.org/2000/svg">
<path d="M94.9921 9.99829H44.9921C39.4771 9.99829 34.9921 14.4833 34.9921 19.9983V47.9283L11.4571 71.4633C10.7581 72.1626 10.282 73.0534 10.0892 74.0231C9.89634 74.9929 9.99536 75.9981 10.3737 76.9116C10.7521 77.8251 11.3928 78.6059 12.2148 79.1553C13.0369 79.7047 14.0033 79.9981 14.9921 79.9983V104.998C14.9921 106.324 15.5189 107.596 16.4566 108.534C17.3942 109.472 18.666 109.998 19.9921 109.998H99.9921C101.318 109.998 102.59 109.472 103.528 108.534C104.465 107.596 104.992 106.324 104.992 104.998V19.9983C104.992 14.4833 100.507 9.99829 94.9921 9.99829ZM54.9921 99.9983H24.9921V72.0683L39.9921 57.0683L54.9921 72.0683V99.9983ZM94.9921 99.9983H64.9921V79.9983C65.9819 80.0005 66.9501 79.7085 67.7737 79.1595C68.5973 78.6105 69.2392 77.8292 69.618 76.9147C69.9967 76.0002 70.0953 74.9938 69.901 74.0232C69.7068 73.0526 69.2286 72.1616 68.5271 71.4633L44.9921 47.9283V19.9983H94.9921V99.9983Z" fill="#F3F3F3"/>
<path d="M55.0068 30H65.0068V40H55.0068V30ZM75.0068 30H85.0068V40H75.0068V30ZM75.0068 50.155H85.0068V60H75.0068V50.155ZM75.0068 70H85.0068V80H75.0068V70ZM35.0068 75H45.0068V85H35.0068V75Z" fill="#F3F3F3"/>
</svg>

<svg width="120" height="120" fill="none" xmlns="http://www.w3.org/2000/svg">
    <path d="M94.992 9.998h-50c-5.515 0-10 4.485-10 10v27.93L11.457 71.463a5 5 0 0 0 3.535 8.535v25a5.002 5.002 0 0 0 5 5h80a5 5 0 0 0 5-5v-85c0-5.515-4.485-10-10-10zm-40 90h-30v-27.93l15-15 15 15v27.93zm40 0h-30v-20a4.995 4.995 0 0 0 3.535-8.535L44.992 47.928v-27.93h50v80z" fill="#F3F3F3"/>
    <path d="M55.007 30h10v10h-10V30zm20 0h10v10h-10V30zm0 20.155h10V60h-10v-9.845zm0 19.845h10v10h-10V70zm-40 5h10v10h-10V75z" fill="#F3F3F3"/>
</svg>
